site/public/social-instagram.svg

<svg width="26" height="26" viewBox="0 0 26 26" fill="none" xmlns="http://www.w3.org/2000/svg">
<path d="M13 0C9.46833 0 9.02742 0.01625 7.64075 0.078C6.25625 0.143 5.31375 0.36075 4.485 0.6825C3.63025 1.014 2.90442 1.45925 2.18183 2.18183C1.45925 2.90442 1.01292 3.62917 0.6825 4.485C0.36075 5.31375 0.141917 6.25625 0.078 7.64075C0.013 9.02742 0 9.46833 0 13C0 16.5317 0.01625 16.9726 0.078 18.3593C0.143 19.7427 0.36075 20.6863 0.6825 21.515C1.0089 22.3826 1.52056 23.1686 2.18183 23.8182C2.83105 24.4799 3.61714 24.9916 4.485 25.3175C5.31483 25.6382 6.25733 25.8581 7.64075 25.922C9.02742 25.987 9.46833 26 13 26C16.5317 26 16.9726 25.9838 18.3593 25.922C19.7427 25.857 20.6863 25.6382 21.515 25.3175C22.3824 24.9907 23.1683 24.4791 23.8182 23.8182C24.4801 23.1691 24.9919 22.383 25.3175 21.515C25.6382 20.6863 25.8581 19.7427 25.922 18.3593C25.987 16.9726 26 16.5317 26 13C26 9.46833 25.9838 9.02742 25.922 7.64075C25.857 6.25733 25.6382 5.31267 25.3175 4.485C24.9909 3.61749 24.4793 2.83154 23.8182 2.18183C23.1694 1.51953 22.3832 1.00771 21.515 0.6825C20.6863 0.36075 19.7427 0.141917 18.3593 0.078C16.9726 0.013 16.5317 0 13 0ZM13 2.34C16.4699 2.34 16.8838 2.35733 18.2542 2.41692C19.5217 2.4765 20.2096 2.68667 20.6667 2.8665C21.2756 3.10158 21.7068 3.38325 22.1639 3.83717C22.6178 4.29217 22.8995 4.72442 23.1346 5.33325C23.3123 5.79042 23.5246 6.47833 23.582 7.74583C23.6438 9.11733 23.6578 9.529 23.6578 13C23.6578 16.471 23.6416 16.8838 23.5777 18.2542C23.5116 19.5217 23.3003 20.2096 23.1216 20.6667C22.9101 21.2309 22.5777 21.7419 22.1477 22.1639C21.7275 22.5943 21.2168 22.9259 20.6527 23.1346C20.1977 23.3123 19.4989 23.5246 18.2314 23.582C16.8513 23.6438 16.445 23.6578 12.9675 23.6578C9.48892 23.6578 9.08267 23.6416 7.70358 23.5777C6.435 23.5116 5.73625 23.3003 5.28125 23.1216C4.71673 22.9127 4.20623 22.5799 3.78733 22.1477C3.35246 21.7303 3.01894 21.2189 2.81233 20.6527C2.63358 20.1977 2.42342 19.4989 2.35733 18.2314C2.30858 16.8664 2.29125 16.445 2.29125 12.9838C2.29125 9.52142 2.30858 9.09892 2.35733 7.71767C2.42342 6.45017 2.63358 5.7525 2.81233 5.2975C3.03983 4.68 3.33125 4.2575 3.78733 3.80142C4.24125 3.3475 4.66483 3.055 5.28125 2.82858C5.73625 2.64875 6.41983 2.4375 7.68733 2.3725C9.06858 2.32375 9.47483 2.3075 12.9513 2.3075L13 2.34ZM13 6.3245C12.1234 6.3245 11.2553 6.49717 10.4454 6.83264C9.63549 7.16812 8.89959 7.65983 8.27971 8.27971C7.65983 8.89959 7.16812 9.63549 6.83264 10.4454C6.49717 11.2553 6.3245 12.1234 6.3245 13C6.3245 13.8766 6.49717 14.7447 6.83264 15.5546C7.16812 16.3645 7.65983 17.1004 8.27971 17.7203C8.89959 18.3402 9.63549 18.8319 10.4454 19.1674C11.2553 19.5028 12.1234 19.6755 13 19.6755C14.7705 19.6755 16.4684 18.9722 17.7203 17.7203C18.9722 16.4684 19.6755 14.7705 19.6755 13C19.6755 11.2295 18.9722 9.53161 17.7203 8.27971C16.4684 7.02781 14.7705 6.3245 13 6.3245ZM13 17.3333C10.6058 17.3333 8.66667 15.3942 8.66667 13C8.66667 10.6058 10.6058 8.66667 13 8.66667C15.3942 8.66667 17.3333 10.6058 17.3333 13C17.3333 15.3942 15.3942 17.3333 13 17.3333ZM21.4998 6.06125C21.4848 6.46493 21.3138 6.84705 21.0229 7.12733C20.732 7.4076 20.3438 7.56419 19.9398 7.56419C19.5359 7.56419 19.1476 7.4076 18.8567 7.12733C18.5658 6.84705 18.3949 6.46493 18.3798 6.06125C18.3798 5.64751 18.5442 5.25072 18.8367 4.95816C19.1293 4.66561 19.5261 4.50125 19.9398 4.50125C20.3536 4.50125 20.7504 4.66561 21.0429 4.95816C21.3355 5.25072 21.4998 5.64751 21.4998 6.06125Z" fill="black"/>
</svg>

<svg xmlns="http://www.w3.org/2000/svg" fill="none" width="26" height="26" viewBox="0 0 26 26"><path d="M13 0C9.468 0 9.027.016 7.64.078 6.257.143 5.315.361 4.486.683a6.366 6.366 0 0 0-2.303 1.499 6.343 6.343 0 0 0-1.5 2.303c-.321.829-.54 1.771-.604 3.156C.012 9.027-.001 9.468-.001 13s.016 3.973.078 5.36c.065 1.383.283 2.326.605 3.155a6.376 6.376 0 0 0 1.499 2.303 6.358 6.358 0 0 0 2.303 1.5c.83.32 1.772.54 3.156.604C9.027 25.987 9.468 26 13 26s3.973-.016 5.36-.078c1.383-.065 2.326-.284 3.155-.605a6.39 6.39 0 0 0 2.303-1.499 6.35 6.35 0 0 0 1.5-2.303c.32-.829.54-1.772.604-3.156.065-1.386.078-1.827.078-5.36 0-3.533-.016-3.974-.078-5.36-.065-1.384-.284-2.328-.605-3.156a6.382 6.382 0 0 0-1.499-2.303 6.335 6.335 0 0 0-2.303-1.5c-.829-.32-1.772-.54-3.156-.604C16.973.013 16.532 0 13 0Zm0 2.34c3.47 0 3.884.017 5.254.077 1.268.06 1.956.27 2.413.45a4.03 4.03 0 0 1 1.497.97c.454.455.735.887.97 1.496.178.457.39 1.145.448 2.413.062 1.371.076 1.783.076 5.254 0 3.471-.016 3.884-.08 5.254-.066 1.268-.278 1.956-.456 2.413a4.128 4.128 0 0 1-.974 1.497 4.05 4.05 0 0 1-1.495.97c-.455.178-1.154.39-2.422.448-1.378.062-1.784.076-5.262.076-3.478 0-3.884-.016-5.263-.08-1.27-.066-1.968-.278-2.423-.456a4.027 4.027 0 0 1-1.494-.974 3.948 3.948 0 0 1-.975-1.495c-.178-.455-.39-1.154-.455-2.422-.048-1.363-.066-1.784-.066-5.245 0-3.463.018-3.885.066-5.266.066-1.268.277-1.965.455-2.42.228-.618.52-1.04.975-1.497.454-.454.878-.746 1.494-.972.455-.18 1.139-.392 2.406-.457 1.382-.048 1.788-.064 5.264-.064l.048.03Zm0 3.984a6.676 6.676 0 1 0 0 13.352 6.676 6.676 0 0 0 0-13.35Zm0 11.01A4.332 4.332 0 0 1 8.667 13 4.332 4.332 0 0 1 13 8.667 4.332 4.332 0 0 1 17.333 13 4.332 4.332 0 0 1 13 17.333ZM21.5 6.06a1.56 1.56 0 0 1-3.12 0 1.56 1.56 0 0 1 3.12 0Z" fill="#000"/></svg>
